X: 401
T: Eley Molly
S: MS of Walter Rainstorp 1747++ 
S: https://brbl-dl.library.yale.edu/vufind/Record/3444369
F: https://brbl-dl.library.yale.edu/pdfgen/exportPDF.php?bibid=2057949&solrid=3444369
%R: jig
Z: 2019 John Chambers <jc:trillian.mit.edu>
M: 6/8
L: 1/8
K: Gmix
|:\
B>AB G2G | G2g  gdc | B>AB G2G | F2f- fcA |\
B>cB G2G | G2g- gdB | cac  BgB | A2f  fcA :|
|:\
Bcd ded | d2g- gdc | Bcd dcB | A2f- fcA |\
Bcd ded | d2g- gdB | cac BgB | A2f- fcA :|
|:\
G2g- gdB | gdB gdB | A2f fcA | fcA  fcA |\
G2g- gdB | gdB gdB | cac BgB | A2f- fcA :|
%%begintext align
%% 1.t Cu. set across and turn :|
%% slip down the middle up again & cast off .|
%% lead thro' 3d Cu & cast up .|
%% hands round with 2d Cu .|.
%% right and left quite round :|:
%%endtext
